images/hacktoberfest2021.svg

<svg fill="none" height="889" viewBox="0 0 2295 889" width="2295" xmlns="http://www.w3.org/2000/svg"><path d="m2197 114.81-.58-23.91-72.05-.4601c4.5 81.0601 4.5 110.3301 4.5 247.2201 27 11.71 56.74 23.87 68.45 32.42l56.29-62.59c-15.76-1.35-42.33-10.35-57.19-18.91 0-80.61 0-105.82.9-133.29z" fill="#f74700"/><path d="m1193.92 288.58-67.55 49.08c27 11.71 54.5 23.87 66.2 32.42l56.29-62.59c-15.76-1.35-40.08-10.35-54.94-18.91z" fill="#b53a25"/><path d="m675.57 142.68 44.79-61.2297-.65-.4601-119.34 53.1398c4.51 53.13 4.51 98.61 4.51 189.58 30.17 9 78.8 27.91 118 46.37l52.69-62.59c-31.07-4.5-80.15-15.31-103.12-28.82 0-57.64 0-89.61 3.15-136z" fill="#f74700"/><path d="m440.35 308.08-8.42-2.84c-24.77-6.3-49.08-14.41-69.34-26.57 0-57.64 1-89.72 4.14-136.1h.17l44.36-60.57-1.39-1-119.33 53.13c4.5 53.13 4.5 98.61 4.5 189.58 25.22 6.3 60.79 27.91 93.66 46.37 0 0 40.53-48.18 50.44-59.89z" fill="#f74700"/><path d="m1525.81 317-75.21-10.36c-27.46-6.75-55.83-14.86-77.89-27.92 0-57.19 0-89.16 3.15-134.64l.31.05 52.83-63.13-128.33 53.14c4.5 53.13 4.5 98.61 4.5 189.58 25.21 6.3 73.4 32.87 92.31 46.37z" fill="#f74700"/><path d="m2057.51 218.3h-55.24-54.93c.45-25.67 1.35-48.18 3.15-75.65l.33.1 43.86-61.75-119.34 53.14c4.51 53.13 4.51 98.61 4.51 189.58 30.16 9 78.8 27.91 118 46.37l52.69-62.59c-31.07-4.5-80.15-15.31-103.12-28.82v-40.54l57.19 22.52c19.19-16.51 29.1-25.51 52.95-42.33" fill="#f74700"/><g fill="#b53a25"><path d="m79.3199 90.8999 111.2201 13.5001 15.32-76.5501-134.7101-13.47 8.14 76.93z"/><path d="m220.72 399.81c-4.51-81.06-4.51-139.15-4.51-230.11-25.22-6.3-77.9-32.87-96.81-46.39 0 0-25.8701 28.78-42.5401 47.35v19.34c23.7801 7.18 48.0001 15.72 67.3101 28.74 0 72.05 0 109-4.51 190z"/><path d="m2128.59 338.12c26.88 11.64 57 23.47 68.69 32l56.29-62.59c-14.89-1.28-41.28-10.91-56.48-19z"/><path d="m1281.72 740-15.1-69.31-78.2 13.33c-15.11-39.1-21.78-61.32-31.55-100.42 22.21-13.77 70.2-44.43 90.64-61.31 36 8.88 72.43 19.55 101.75 19.55l-18.66 72.42c-28.44-6.22-69.32-21.77-96-33.32l25.32 74.64 68-20.88c12 36 20 69.31 28 112-28.43 19.11-54.65 45.76-70.64 60-47.1-8.88-72.87-13.77-122.19-13.77 7.11-31.55 20-56.87 32-76z"/><path d="m1493.65 531.15h39.1l-6.22 44h-34.21c-.89 37.33-.89 78.64-.89 151.07 14.67 8.44 38.66 17.33 54.21 18.66l-55.54 61.76c-11.55-8.44-38.66-20.44-65.32-32 0-82.64 0-145.29-.88-199.5h-21.33c8-19.55 12-24.44 20-44-.44-18.21-1.33-36-2.22-53.32l75.53 8.89c-.88 16.45-1.78 30.67-2.23 44.44z"/></g><path d="m1424.78 774.64c0-82.64 0-145.29-.88-199.5h-21.33c8-19.55 12-24.44 20-44-.44-18.21-1.33-36-2.22-53.32l75.53 8.89c-.88 16.44-1.77 30.66-2.22 44.43h39.1l-6.22 44h-34.21c-.89 37.33-.89 78.64-.89 151.07" fill="#f74700"/><path d="m1198.52 682.28 69.84-29.3-8.41 2.58-25.32-74.64 10.22-56.52c-21.66 17.22-66.66 46-88 59.18 9.77 39.1 16.44 61.32 31.55 100.42z" fill="#f74700"/><path d="m1281.72 740-86.64-23.1c-12 19.11-24.88 44.43-32 76 49.32 0 75.09 4.89 122.19 13.77 15.78-14 41.52-40.16 69.52-59.2z" fill="#f74700"/><path d="m1107 552.75-.91 104.92c-24.31 17.12-34.22 26.13-53.58 42.79l-57.19-22.52v40.53c23 13.51 72 24.32 103.12 28.82l-52.69 62.59c-39.17-18.46-87.81-37.37-118-46.38 0-91 0-136.45-4.5-189.58l119.34-53.13c18.93 13.5 36.48 18.91 64.41 31.96zm-56.75 105.37v-54.93c-16.21-8.1-31.07-14-51.78-20.71-1.8 27.46-2.7 50-3.15 75.64z" fill="#f74700"/><path d="m1001.38 582.48-.07.94c19.22 6.36 33.5 12.05 48.94 19.77v54.93h55.21l.63-.45.91-104.92c-26.65-12.45-43.85-18-61.8-30.17z" fill="#b53a25"/><path d="m831.645 814.341.641-.376c-.891-103.441 0-139.571 2.663-250.11h24.028l19.133-50.716h-41.819l5.209-43.139c27.142-8.616 48.546-22.964 69-26-.881-.514-54.957-33.301-66.5-48-11.574 9.632-51.3 22.315-77.991 35.519 1.331 25.86 2.673 53.238 3.564 81.631h-.441l-19.132 50.716h21.355c.25 8.856.491 17.347.721 25.575h-8.951c.901 62.699.901 186.578.901 282.155 27.032 13.364 23.929 7.635 35.642 17.404l64.075-59.343c-15.778-1.552-17.22-4.303-32.098-14.06z" fill="#b53a25"/><path d="m841 477.5 24.5-13.5 43.565 28.312 30.473-46.542c-.015-.272-.123-1.269-.157-1.493l-87.608-56.837c-24.905 15.659-71.789 37.08-91.773 45.56z" fill="#b53a25"/><path d="m836.406 513.253 4.594-36.253 10-89c-8.202 6.854-43.711 22.684-61.85 31.96v-.343l-29.618 13.24c.892 20.059 1.804 40.644 2.256 61.685-.291.32-.301 7.916-.181 18.666h-34.06l-17.547 50.765h52.499c.321 14.553.602 25.599.602 25.599.903 62.759.902 186.758.902 282.428l67.721-56.054v-1.245l.641-.377c-.892-103.54 0-139.706 2.667-250.351h43.225l19.743-50.72z" fill="#f74700"/><path d="m79.2898 91.3099-8.14-76.93h-.39c-20.71 17.12-45.93 36.92-68.44002 50.88 4.5 81.0601 2.69999 210.7501-1.810014 295.8601h80.610034c-2.14-40.65-3.7-87.5-4.26-134.31v-81.88z" fill="#f74700"/><path d="m917.62 138.29c1.82-52.0002 2-91.5302 3.84-123.9502l-76.55 9c4.5 81.0002 3.61 200.8302 3.61 337.7302h68.48v-121.57z" fill="#f74700"/><path d="m1045.29 230.49c-15.3-6.76-32.42-14.86-46.37-22.06l36.91-14v-80.57c-34.21-11.26-45.92-17.9998-70.69-32.8698 0 0-31.38 34.5798-47.17 52.3598l-.11 12c21.62 4 31.07 5.86 50.44 11.25v23.9c0 4.49-30.9 29.13-51.17 47.13l-.09 10.68 1 .79c26 9.44 45.8 17.52 59.73 23.81 0 22.52-.45 80.6-.45 99.52l68 8.1c-2.32-34.66-2.32-100.41-.03-140.04z" fill="#b53a25"/><path d="m675.57 142.68c28.37 9.45 46.39 16.66 70.7 31.52l37.83-61.2c-27.6-12.91-45.07-18.35-63.74-31.52z" fill="#b53a25"/><path d="m502.64 288.58c-.74-80.52-.46-99.52-.46-161.21-24.65-6.17-71.18-31.66-90.91-45.37l-44.42 60.73.06.22c27.68 5 45.08 12.53 67.73 22.3 0 41-1.11 77.44-2.71 140l8.42 2.84-1.06 2.35c17.55 28.71 41.76 51.57 53 59.65l56.28-62.59c-15.31-2.26-31.08-10.36-45.93-18.92z" fill="#b53a25"/><path d="m1126.37 337.66c0-83.75 0-147.25-.89-202.19h-21.62c8.1-19.81 12.16-24.76 20.26-44.5701-.45-18.47-1.35-36.48-2.25-54l76.55 9c-.89 16.66-1.8 31.07-2.25 45h39.62l-6.3 44.5701h-34.67c-.9 37.83-.9 79.71-.9 153.11z" fill="#f74700"/><path d="m1376 144.34 4.41.53c26.05 4.88 52.54 11.38 73.4 20.33 0 42.32 0 75.64-3.16 141.39l75.16 10.41c-4.5-81.06-4.5-127.89-4.5-189.58-25.22-6.31-73.41-32.88-92.32-46.38z" fill="#b53a25"/><path d="m1664 135c2.62-57.8899 1.7-104.7799 2.75-134.149902l-71.15 22.520002c1.35 80.9999.45 238.6599.45 300.3599 25.22 6.3 73.41 32.87 92.32 46.37l119.36-53.1v-.14l-75.45-8.29v-.17c-28.23-5-45.75-12.6-68.65-22.48 0-22 0-80.15.45-140.49z" fill="#f74700"/><path d="m1807.72 316.81c-4.49-53.07-4.49-98.56-4.49-189.44-25.23-6.31-60.8-27.9198-93.67-46.3798 0 0-30.8 36.4598-45.31 53.8298v10.6c25.61 6.3 50.34 14.84 71.46 27 0 57.11-1.06 90.14-3.41 136.12z" fill="#b53a25"/><path d="m1950.6 143.1 2.88.91c19.23 6.36 32.93 11.24 48.37 19v54.94l55.63.42c.22-.16 1-.79 1.17-.94l.35-104.43c-26.65-12.46-46.2-20-64.15-32.21z" fill="#b53a25"/><path d="m2223.85 81.8901-26.12 32.4199-.64.71v39.91l3.21 1.65c13.92 5.865 27.51 12.498 40.7 19.87l54-61.69c-21.17-10.36-49.09-22.0699-71.15-32.8699z" fill="#b53a25"/><path d="m319.56 685.86 67.44-89.64 11.21-47.62c-19.1 6.62-37.44 17.57-54 27.5l-23.17-39c23.42-6.62 39.47-13 62.39-21.65l62.39 36.17-25.21 70.28-50.93 54.5c23.93 0 48.38.25 70.54-3.06l-12.74 38.2h-93.41z" fill="#677662"/><path d="m613.18 546.82c0 34.89.26 94 2.81 139.81l-72.58 30c-10.7-7.64-37.95-22.67-52.21-26.23 0-51.45-.25-109.76-2.8-139.81l72.58-30c10.69 7.64 37.94 22.66 52.2 26.23zm-39.72 133.95c1.78-37.18 1.52-88.62 1.52-112.56-12.47-5.35-28.52-9.17-44.05-12-1.78 26.48-1.53 76.4-1.53 108.74 12.48 7.42 28.52 12.05 44.06 15.82z" fill="#677662"/><path d="m1651.08 685.86 67.49-89.64 11.2-47.62c-19.1 6.62-37.43 17.57-54 27.5l-23.17-39c23.43-6.62 39.47-13 62.39-21.65l62.39 36.17-25.21 70.28-50.93 54.5c23.94 0 48.39.25 70.54-3.06l-12.73 38.2h-93.45z" fill="#677662"/><path d="m1833.17 716.93c0-19.86-1.79-111.29-1.79-145.66l22.67-14.78h-34.13l6.63-35.9h45.83l-2.8 35.65c.26 55.77.77 131.15 2.8 155.6z" fill="#677662"/></svg>

<svg width="2295" height="889" viewBox="0 0 2295 889" fill="none" xmlns="http://www.w3.org/2000/svg">
<path d="M2197 114.81L2196.42 90.9L2124.37 90.4399C2128.87 171.5 2128.87 200.77 2128.87 337.66C2155.87 349.37 2185.61 361.53 2197.32 370.08L2253.61 307.49C2237.85 306.14 2211.28 297.14 2196.42 288.58C2196.42 207.97 2196.42 182.76 2197.32 155.29L2197 114.81Z" fill="#F74700"/>
<path d="M1193.92 288.58L1126.37 337.66C1153.37 349.37 1180.87 361.53 1192.57 370.08L1248.86 307.49C1233.1 306.14 1208.78 297.14 1193.92 288.58Z" fill="#B53A25"/>
<path d="M675.57 142.68L720.36 81.4503L719.71 80.9902L600.37 134.13C604.88 187.26 604.88 232.74 604.88 323.71C635.05 332.71 683.68 351.62 722.88 370.08L775.57 307.49C744.5 302.99 695.42 292.18 672.45 278.67C672.45 221.03 672.45 189.06 675.6 142.67L675.57 142.68Z" fill="#F74700"/>
<path d="M440.35 308.08L431.93 305.24C407.16 298.94 382.85 290.83 362.59 278.67C362.59 221.03 363.59 188.95 366.73 142.57H366.9L411.26 82L409.87 81L290.54 134.13C295.04 187.26 295.04 232.74 295.04 323.71C320.26 330.01 355.83 351.62 388.7 370.08C388.7 370.08 429.23 321.9 439.14 310.19L440.35 308.08Z" fill="#F74700"/>
<path d="M1525.81 317L1450.6 306.64C1423.14 299.89 1394.77 291.78 1372.71 278.72C1372.71 221.53 1372.71 189.56 1375.86 144.08L1376.17 144.13L1429 81L1300.67 134.14C1305.17 187.27 1305.17 232.75 1305.17 323.72C1330.38 330.02 1378.57 356.59 1397.48 370.09L1525.81 317Z" fill="#F74700"/>
<path d="M2057.51 218.3H2002.27H1947.34C1947.79 192.63 1948.69 170.12 1950.49 142.65L1950.82 142.75L1994.68 81L1875.34 134.14C1879.85 187.27 1879.85 232.75 1879.85 323.72C1910.01 332.72 1958.65 351.63 1997.85 370.09L2050.54 307.5C2019.47 303 1970.39 292.19 1947.42 278.68V238.14L2004.61 260.66C2023.8 244.15 2033.71 235.15 2057.56 218.33" fill="#F74700"/>
<path d="M79.3199 90.8999L190.54 104.4L205.86 27.8499L71.1499 14.3799L79.2899 91.3099L79.3199 90.8999Z" fill="#B53A25"/>
<path d="M220.72 399.81C216.21 318.75 216.21 260.66 216.21 169.7C190.99 163.4 138.31 136.83 119.4 123.31C119.4 123.31 93.5299 152.09 76.8599 170.66V190C100.64 197.18 124.86 205.72 144.17 218.74C144.17 290.79 144.17 327.74 139.66 408.74L220.72 399.81Z" fill="#B53A25"/>
<path d="M2128.59 338.12C2155.47 349.76 2185.59 361.59 2197.28 370.12L2253.57 307.53C2238.68 306.25 2212.29 296.62 2197.09 288.53L2128.59 338.12Z" fill="#B53A25"/>
<path d="M1281.72 740L1266.62 670.69L1188.42 684.02C1173.31 644.92 1166.64 622.7 1156.87 583.6C1179.08 569.83 1227.07 539.17 1247.51 522.29C1283.51 531.17 1319.94 541.84 1349.26 541.84L1330.6 614.26C1302.16 608.04 1261.28 592.49 1234.6 580.94L1259.92 655.58L1327.92 634.7C1339.92 670.7 1347.92 704.01 1355.92 746.7C1327.49 765.81 1301.27 792.46 1285.28 806.7C1238.18 797.82 1212.41 792.93 1163.09 792.93C1170.2 761.38 1183.09 736.06 1195.09 716.93L1281.72 740Z" fill="#B53A25"/>
<path d="M1493.65 531.15H1532.75L1526.53 575.15H1492.32C1491.43 612.48 1491.43 653.79 1491.43 726.22C1506.1 734.66 1530.09 743.55 1545.64 744.88L1490.1 806.64C1478.55 798.2 1451.44 786.2 1424.78 774.64C1424.78 692 1424.78 629.35 1423.9 575.14H1402.57C1410.57 555.59 1414.57 550.7 1422.57 531.14C1422.13 512.93 1421.24 495.14 1420.35 477.82L1495.88 486.71C1495 503.16 1494.1 517.38 1493.65 531.15Z" fill="#B53A25"/>
<path d="M1424.78 774.64C1424.78 692 1424.78 629.35 1423.9 575.14H1402.57C1410.57 555.59 1414.57 550.7 1422.57 531.14C1422.13 512.93 1421.24 495.14 1420.35 477.82L1495.88 486.71C1495 503.15 1494.11 517.37 1493.66 531.14H1532.76L1526.54 575.14H1492.33C1491.44 612.47 1491.44 653.78 1491.44 726.21" fill="#F74700"/>
<path d="M1198.52 682.28L1268.36 652.98L1259.95 655.56L1234.63 580.92L1244.85 524.4C1223.19 541.62 1178.19 570.4 1156.85 583.58C1166.62 622.68 1173.29 644.9 1188.4 684L1198.52 682.28Z" fill="#F74700"/>
<path d="M1281.72 740L1195.08 716.9C1183.08 736.01 1170.2 761.33 1163.08 792.9C1212.4 792.9 1238.17 797.79 1285.27 806.67C1301.05 792.67 1326.79 766.51 1354.79 747.47L1281.72 740Z" fill="#F74700"/>
<path d="M1107 552.75L1106.09 657.67C1081.78 674.79 1071.87 683.8 1052.51 700.46L995.32 677.94V718.47C1018.32 731.98 1067.32 742.79 1098.44 747.29L1045.75 809.88C1006.58 791.42 957.94 772.51 927.75 763.5C927.75 672.5 927.75 627.05 923.25 573.92L1042.59 520.79C1061.52 534.29 1079.07 539.7 1107 552.75ZM1050.25 658.12V603.19C1034.04 595.09 1019.18 589.19 998.47 582.48C996.67 609.94 995.77 632.48 995.32 658.12H1050.25Z" fill="#F74700"/>
<path d="M1001.38 582.48L1001.31 583.42C1020.53 589.78 1034.81 595.47 1050.25 603.19V658.12H1105.46L1106.09 657.67L1107 552.75C1080.35 540.3 1063.15 534.75 1045.2 522.58L1001.38 582.48Z" fill="#B53A25"/>
<path d="M831.645 814.341L832.286 813.965C831.395 710.524 832.286 674.394 834.949 563.855H858.977L878.11 513.139H836.291L841.5 470C868.642 461.384 890.046 447.036 910.5 444C909.619 443.486 855.543 410.699 844 396C832.426 405.632 792.7 418.315 766.009 431.519C767.34 457.379 768.682 484.757 769.573 513.15H769.132L750 563.866H771.355C771.605 572.722 771.846 581.213 772.076 589.441H763.125C764.026 652.14 764.026 776.019 764.026 871.596C791.058 884.96 787.955 879.231 799.668 889L863.743 829.657C847.965 828.105 846.523 825.354 831.645 815.597V814.341Z" fill="#B53A25"/>
<path d="M841 477.5L865.5 464L909.065 492.312L939.538 445.77C939.523 445.498 939.415 444.501 939.381 444.277L851.773 387.44C826.868 403.099 779.984 424.52 760 433L841 477.5Z" fill="#B53A25"/>
<path d="M836.406 513.253L841 477L851 388C842.798 394.854 807.289 410.684 789.15 419.96V419.617L759.532 432.857C760.424 452.916 761.336 473.501 761.788 494.542C761.497 494.862 761.487 502.458 761.607 513.208H727.547L710 563.973H762.499C762.82 578.526 763.101 589.572 763.101 589.572C764.004 652.331 764.003 776.33 764.003 872L831.724 815.946V814.701L832.365 814.324C831.473 710.784 832.365 674.618 835.032 563.973H878.257L898 513.253H836.406Z" fill="#F74700"/>
<path d="M79.2898 91.3099L71.1498 14.3799H70.7598C50.0498 31.4999 24.8298 51.2999 2.31978 65.2599C6.81978 146.32 5.01977 276.01 0.509766 361.12H81.1198C78.9798 320.47 77.4198 273.62 76.8598 226.81V144.93L79.2898 91.3099Z" fill="#F74700"/>
<path d="M917.62 138.29C919.44 86.2898 919.62 46.7598 921.46 14.3398L844.91 23.3398C849.41 104.34 848.52 224.17 848.52 361.07H917V239.5L917.62 138.29Z" fill="#F74700"/>
<path d="M1045.29 230.49C1029.99 223.73 1012.87 215.63 998.92 208.43L1035.83 194.43V113.86C1001.62 102.6 989.91 95.8602 965.14 80.9902C965.14 80.9902 933.76 115.57 917.97 133.35L917.86 145.35C939.48 149.35 948.93 151.21 968.3 156.6V180.5C968.3 184.99 937.4 209.63 917.13 227.63L917.04 238.31L918.04 239.1C944.04 248.54 963.84 256.62 977.77 262.91C977.77 285.43 977.32 343.51 977.32 362.43L1045.32 370.53C1043 335.87 1043 270.12 1045.29 230.49Z" fill="#B53A25"/>
<path d="M675.57 142.68C703.94 152.13 721.96 159.34 746.27 174.2L784.1 113C756.5 100.09 739.03 94.65 720.36 81.48L675.57 142.68Z" fill="#B53A25"/>
<path d="M502.64 288.58C501.9 208.06 502.18 189.06 502.18 127.37C477.53 121.2 431 95.71 411.27 82L366.85 142.73L366.91 142.95C394.59 147.95 411.99 155.48 434.64 165.25C434.64 206.25 433.53 242.69 431.93 305.25L440.35 308.09L439.29 310.44C456.84 339.15 481.05 362.01 492.29 370.09L548.57 307.5C533.26 305.24 517.49 297.14 502.64 288.58Z" fill="#B53A25"/>
<path d="M1126.37 337.66C1126.37 253.91 1126.37 190.41 1125.48 135.47H1103.86C1111.96 115.66 1116.02 110.71 1124.12 90.8999C1123.67 72.4299 1122.77 54.4199 1121.87 36.8999L1198.42 45.8999C1197.53 62.5599 1196.62 76.9699 1196.17 90.8999H1235.79L1229.49 135.47H1194.82C1193.92 173.3 1193.92 215.18 1193.92 288.58L1126.37 337.66Z" fill="#F74700"/>
<path d="M1376 144.34L1380.41 144.87C1406.46 149.75 1432.95 156.25 1453.81 165.2C1453.81 207.52 1453.81 240.84 1450.65 306.59L1525.81 317C1521.31 235.94 1521.31 189.11 1521.31 127.42C1496.09 121.11 1447.9 94.54 1428.99 81.04L1376 144.34Z" fill="#B53A25"/>
<path d="M1664 135C1666.62 77.1101 1665.7 30.2201 1666.75 0.850098L1595.6 23.3701C1596.95 104.37 1596.05 262.03 1596.05 323.73C1621.27 330.03 1669.46 356.6 1688.37 370.1L1807.73 317V316.86L1732.28 308.57V308.4C1704.05 303.4 1686.53 295.8 1663.63 285.92C1663.63 263.92 1663.63 205.77 1664.08 145.43L1664 135Z" fill="#F74700"/>
<path d="M1807.72 316.81C1803.23 263.74 1803.23 218.25 1803.23 127.37C1778 121.06 1742.43 99.4502 1709.56 80.9902C1709.56 80.9902 1678.76 117.45 1664.25 134.82V145.42C1689.86 151.72 1714.59 160.26 1735.71 172.42C1735.71 229.53 1734.65 262.56 1732.3 308.54L1807.72 316.81Z" fill="#B53A25"/>
<path d="M1950.6 143.1L1953.48 144.01C1972.71 150.37 1986.41 155.25 2001.85 163.01V217.95L2057.48 218.37C2057.7 218.21 2058.48 217.58 2058.65 217.43L2059 113C2032.35 100.54 2012.8 93 1994.85 80.79L1950.6 143.1Z" fill="#B53A25"/>
<path d="M2223.85 81.8901L2197.73 114.31L2197.09 115.02V154.93L2200.3 156.58C2214.22 162.445 2227.81 169.078 2241 176.45L2295 114.76C2273.83 104.4 2245.91 92.6901 2223.85 81.8901Z" fill="#B53A25"/>
<path d="M319.56 685.86L387 596.22L398.21 548.6C379.11 555.22 360.77 566.17 344.21 576.1L321.04 537.1C344.46 530.48 360.51 524.1 383.43 515.45L445.82 551.62L420.61 621.9L369.68 676.4C393.61 676.4 418.06 676.65 440.22 673.34L427.48 711.54H334.07L319.56 685.86Z" fill="#677662"/>
<path d="M613.18 546.82C613.18 581.71 613.44 640.82 615.99 686.63L543.41 716.63C532.71 708.99 505.46 693.96 491.2 690.4C491.2 638.95 490.95 580.64 488.4 550.59L560.98 520.59C571.67 528.23 598.92 543.25 613.18 546.82ZM573.46 680.77C575.24 643.59 574.98 592.15 574.98 568.21C562.51 562.86 546.46 559.04 530.93 556.21C529.15 582.69 529.4 632.61 529.4 664.95C541.88 672.37 557.92 677 573.46 680.77V680.77Z" fill="#677662"/>
<path d="M1651.08 685.86L1718.57 596.22L1729.77 548.6C1710.67 555.22 1692.34 566.17 1675.77 576.1L1652.6 537.1C1676.03 530.48 1692.07 524.1 1714.99 515.45L1777.38 551.62L1752.17 621.9L1701.24 676.4C1725.18 676.4 1749.63 676.65 1771.78 673.34L1759.05 711.54H1665.6L1651.08 685.86Z" fill="#677662"/>
<path d="M1833.17 716.93C1833.17 697.07 1831.38 605.64 1831.38 571.27L1854.05 556.49H1819.92L1826.55 520.59H1872.38L1869.58 556.24C1869.84 612.01 1870.35 687.39 1872.38 711.84L1833.17 716.93Z" fill="#677662"/>
</svg>
